build/img/landings/copywriting/prog/text-dz.svg

<svg width="20" height="20" viewBox="0 0 20 20" fill="none" xmlns="http://www.w3.org/2000/svg">
<path d="M10.0003 0.00195312C4.47639 0.00195312 0 4.47834 0 10.0023C0 15.5242 4.47639 19.9993 10.0003 19.9993C15.5229 19.9993 20 15.5236 20 10.0023C20.0007 4.47834 15.5229 0.00195312 10.0003 0.00195312ZM10.0003 18.3308C5.40015 18.3308 1.67049 14.6031 1.67049 10.0023C1.67049 5.40344 5.40015 1.67112 10.0003 1.67112C14.5998 1.67112 18.3288 5.40277 18.3288 10.0023C18.3295 14.6031 14.5998 18.3308 10.0003 18.3308Z" fill="#858585"/>
<path d="M12.9077 6L13 7.87611H12.7663C12.7211 7.54572 12.6596 7.30973 12.5817 7.16814C12.4546 6.94002 12.2844 6.77286 12.0712 6.66667C11.862 6.55654 11.5852 6.50147 11.2408 6.50147H10.0659V12.6136C10.0659 13.1052 10.1213 13.412 10.232 13.5339C10.3878 13.6991 10.6277 13.7817 10.9517 13.7817H11.2408V14H7.70387V13.7817H7.99912C8.35179 13.7817 8.60193 13.6794 8.74956 13.4749C8.83978 13.3491 8.88489 13.0619 8.88489 12.6136V6.50147H7.88225C7.49268 6.50147 7.21588 6.52901 7.05185 6.58407C6.83861 6.6588 6.65612 6.80236 6.50439 7.01475C6.35267 7.22714 6.26245 7.51426 6.23374 7.87611H6L6.09842 6H12.9077Z" fill="#858585"/>
</svg>

<svg width="20" height="20" fill="none" xmlns="http://www.w3.org/2000/svg"><path d="M10 .002a10 10 0 00-10 10C0 15.524 4.476 20 10 20c5.523 0 10-4.475 10-9.997 0-5.524-4.477-10-10-10zm0 18.329a8.33 8.33 0 01-8.33-8.329A8.332 8.332 0 0110 1.672a8.331 8.331 0 010 16.659z" fill="#858585"/><path d="M12.908 6L13 7.876h-.234c-.045-.33-.106-.566-.184-.708a1.186 1.186 0 00-.51-.501c-.21-.11-.487-.166-.831-.166h-1.175v6.113c0 .491.055.798.166.92.156.165.396.248.72.248h.289V14H7.704v-.218h.295c.353 0 .603-.103.75-.307.09-.126.136-.413.136-.861V6.5H7.882c-.39 0-.666.028-.83.083a1.132 1.132 0 00-.548.43c-.151.213-.242.5-.27.862H6L6.098 6h6.81z" fill="#858585"/></svg>
